src/assets/img/braces.svg

<svg fill="#000000" xmlns="http://www.w3.org/2000/svg">
<path d="M18 8.92534C18 8.63119 18.1295 8.35196 18.3541 8.16195L28 0V19C28 19.5523 27.5523 20 27 20H19C18.4477 20 18 19.5523 18 19V8.92534Z" fill="#000000"/>
<path d="M0 8.92534C0 8.63119 0.129507 8.35196 0.354058 8.16195L10 0V19C10 19.5523 9.55228 20 9 20H1C0.447715 20 0 19.5523 0 19V8.92534Z" fill="#000000"/>
</svg>

<svg xmlns="http://www.w3.org/2000/svg"><path d="M18 8.925a1 1 0 0 1 .354-.763L28 0v19a1 1 0 0 1-1 1h-8a1 1 0 0 1-1-1V8.925ZM0 8.925a1 1 0 0 1 .354-.763L10 0v19a1 1 0 0 1-1 1H1a1 1 0 0 1-1-1V8.925Z"/></svg>
